X:133
T: DA DRAUSSN AUF DEM BERGLE
N: Z0132
O: Europa, Mitteleuropa, Deutschland, Vogtland
R: Erzaehlung, lustige Romanze
M: 3/8
L: 1/8
K: F
c | cAB | ccc | f
cc | cBA | GAB | A
Bc | cBA | GAB | A2

@@@ Tune index: 9891
